ion/scale-sharp.svg

<svg viewBox="0 0 512 512" xmlns="http://www.w3.org/2000/svg"><path d="M432 32H80h-.001c-26.5.02-47.98 21.5-48 48v352 0c.02 26.49 21.5 47.97 48 48h352v0c26.49-.03 47.97-21.51 48-48V80v0c-.03-26.5-21.51-47.98-48-48Zm-16.71 165l-52.46 61.73v0c-9.4 11.17-25.84 13.19-37.65 4.62 -13-9.29-39.27-24.89-69.18-24.89 -29.91 0-56.18 15.6-69.18 24.89v0c-11.82 8.57-28.26 6.55-37.65-4.62L96.71 197H96.7c-10.31-12.17-10.13-30.05.42-42 18.93-21.31 72.3-70.87 158.87-70.87 86.57 0 139.94 49.59 158.87 70.87v0 0c10.54 11.95 10.72 29.83.42 42Z"/></svg>

<svg id="icons" xmlns="http://www.w3.org/2000/svg" viewBox="0 0 512 512"><path d="M432,32H80A48.05,48.05,0,0,0,32,80V432a48.05,48.05,0,0,0,48,48H432a48.05,48.05,0,0,0,48-48V80A48.05,48.05,0,0,0,432,32ZM415.29,197l-52.46,61.73a27.83,27.83,0,0,1-37.65,4.62c-13-9.29-39.27-24.89-69.18-24.89s-56.18,15.6-69.18,24.89a27.84,27.84,0,0,1-37.65-4.62L96.71,197A32.12,32.12,0,0,1,97.13,155c18.93-21.31,72.3-70.87,158.87-70.87S395.94,133.72,414.87,155h0A32.12,32.12,0,0,1,415.29,197Z"/></svg>
